X: 28187
T: Mrs Thom
R: jig
M: 6/8
K: Amajor
|:c2 c cBA|ABc A2 E|FAG AAe|cBA Bcd|
c2 c cBA|ABc A2 a|gea geB|1 ceB BAA:|2 ceB BAe||
fca g2 e|efc eBA|eff fec|cBA Bce|
fca g2 e|efc ec/d/e|dA(f f2)c|BAG A2 e|
fca g2 e|efc eBA|eff fec|cBA Bcd|
cc/c/c cBA|ABc A2a|gea geB|ceB BAA||

